assets/img/basket-icon.svg

<?xml version="1.0" encoding="UTF-8"?>
<svg width="23px" height="21px" viewBox="0 0 23 21" version="1.1" xmlns="http://www.w3.org/2000/svg" xmlns:xlink="http://www.w3.org/1999/xlink">
    <title>9AB46B71-9352-429C-8144-7D92936CCBD3@svg</title>
    <g id="homepage" stroke="none" stroke-width="1" fill="none" fill-rule="evenodd">
        <g id="homepage-v3" transform="translate(-1317.000000, -98.000000)" fill="#504E4E">
            <g id="header" transform="translate(0.000000, 31.000000)">
                <g id="basket" transform="translate(1317.000000, 64.000000)">
                    <g id="basket-icon-header-desktop" transform="translate(0.000000, 3.000000)">
                        <path d="M21.1792433,9.29859333 L2.22801,9.29859333 C2.01487667,9.29859333 1.84084333,9.12456 1.84084333,8.91142667 C1.84084333,8.69752667 2.01487667,8.52349333 2.22801,8.52349333 L21.1792433,8.52349333 C21.3923767,8.52349333 21.5671767,8.69752667 21.5671767,8.91142667 C21.5671767,9.12456 21.3931433,9.29859333 21.1792433,9.29859333 L21.1792433,9.29859333 Z M18.5687433,18.06236 C18.4230767,18.8757933 17.7177433,19.4668933 16.8912767,19.4668933 L6.61181,19.4668933 C5.78457667,19.4668933 5.07924333,18.8757933 4.93434333,18.06236 L3.60494333,10.60806 L19.8981433,10.60806 L18.5687433,18.06236 Z M21.1792433,7.21402667 L20.38421,7.21402667 L16.8245767,0.500326667 C16.6551433,0.180626667 16.2587767,0.0594933333 15.9398433,0.228926667 C15.6201433,0.39836 15.4982433,0.794726667 15.6684433,1.11366 L18.9022433,7.21402667 L4.60007667,7.21402667 L7.83541,1.11366 C8.00407667,0.794726667 7.88217667,0.39836 7.56324333,0.228926667 C7.24354333,0.0594933333 6.84794333,0.180626667 6.67851,0.500326667 L3.11811,7.21402667 L2.22801,7.21402667 C1.29344333,7.21402667 0.531376667,7.97532667 0.531376667,8.91142667 C0.531376667,9.84676 1.29344333,10.60806 2.22801,10.60806 L2.27554333,10.60806 C2.27707667,10.6180267 2.27861,10.62646 2.28014333,10.6364267 L3.64481,18.2915933 C3.90164333,19.7306267 5.14977667,20.77636 6.61104333,20.77636 L16.8912767,20.77636 C18.35331,20.77636 19.6006767,19.7306267 19.85751,18.2915933 L21.2229433,10.6364267 C21.2252433,10.62646 21.22601,10.6164933 21.2267767,10.6072933 C22.1406433,10.5812267 22.8758772,9.83066 22.8758772,8.91142667 C22.8766433,7.97532667 22.1153433,7.21402667 21.1792433,7.21402667 L21.1792433,7.21402667 Z" id="Fill-1"></path>
                        <path d="M11.6753367,18.55847 C12.0372033,18.55847 12.33007,18.2648367 12.33007,17.9037367 L12.33007,12.17137 C12.33007,11.8095033 12.0372033,11.51587 11.6753367,11.51587 C11.31347,11.51587 11.0206033,11.8095033 11.0206033,12.17137 L11.0206033,17.9037367 C11.0206033,18.2648367 11.3142367,18.55847 11.6753367,18.55847" id="Fill-3"></path>
                        <path d="M8.79581333,18.55847 C8.83184667,18.55847 8.86864667,18.5554033 8.90544667,18.54927 C9.26118,18.4887033 9.50191333,18.15137 9.44211333,17.79487 L8.47611333,12.0617367 C8.41631333,11.7060033 8.07821333,11.46527 7.72248,11.52507 C7.36598,11.5856367 7.12524667,11.9237367 7.18504667,12.2802367 L8.15028,18.0118367 C8.20471333,18.3323033 8.48224667,18.55847 8.79581333,18.55847" id="Fill-5"></path>
                        <path d="M14.40053,18.5495 C14.43733,18.5556333 14.47413,18.5587 14.5101633,18.5587 C14.82373,18.5587 15.1004967,18.3325333 15.1541633,18.0120667 L16.1201633,12.2797 C16.1799633,11.9232 15.9399967,11.5858667 15.5834967,11.5253 C15.2269967,11.4662667 14.8896633,11.7054667 14.8290967,12.0619667 L13.8638633,17.7951 C13.8040633,18.1508333 14.04403,18.4889333 14.40053,18.5495" id="Fill-7"></path>
                    </g>
                </g>
            </g>
        </g>
    </g>
</svg>

<svg width="23" height="21" xmlns="http://www.w3.org/2000/svg"><g fill="#504E4E" fill-rule="evenodd"><path d="M21.18 9.299H2.227a.388.388 0 0 1 0-.776h18.951a.388.388 0 0 1 0 .775Zm-2.611 8.763a1.703 1.703 0 0 1-1.678 1.405H6.611a1.702 1.702 0 0 1-1.677-1.405l-1.33-7.454h16.294l-1.33 7.454Zm2.61-10.848h-.795L16.824.5a.654.654 0 1 0-1.156.614l3.234 6.1H4.6l3.235-6.1A.656.656 0 0 0 6.68.5l-3.56 6.714h-.891A1.7 1.7 0 0 0 .531 8.911a1.7 1.7 0 0 0 1.697 1.697h.048l.004.028 1.365 7.656a3.011 3.011 0 0 0 2.966 2.484h10.28a3.01 3.01 0 0 0 2.967-2.484l1.365-7.656.004-.029a1.698 1.698 0 0 0-.048-3.393Z"/><path d="M11.675 18.558a.655.655 0 0 0 .655-.654V12.17a.655.655 0 1 0-1.31 0v5.733c0 .36.294.654.655.654M8.796 18.558a.656.656 0 0 0 .646-.764l-.966-5.732a.655.655 0 0 0-1.291.218l.965 5.732c.055.32.332.546.646.546M14.4 18.55a.654.654 0 0 0 .754-.537l.966-5.733a.655.655 0 0 0-1.29-.218l-.966 5.733c-.06.356.18.694.537.754"/></g></svg>
